svgs/google_play_games.svg

<svg width="192" height="192" viewBox="0 0 192 192" fill="none" xmlns="http://www.w3.org/2000/svg"><path d="m29.56 78.961-7.14 56.232c-1.441 11.347 12.302 18.085 20.39 9.997L70 118h52l27.19 27.19c8.088 8.088 21.831 1.35 20.39-9.997l-7.14-56.232C159.902 58.978 142.901 44 122.758 44H69.242C49.099 44 32.098 58.978 29.56 78.961Z" stroke="#000" stroke-width="12" stroke-linejoin="round"/><path d="M66 69v12m0 12V81m0 0H54m12 0h12" stroke="#000" stroke-width="12" stroke-linecap="round"/><circle cx="126" cy="69" r="6" fill="#000"/><circle cx="126" cy="93" r="6" fill="#000"/><circle cx="138" cy="81" r="6" transform="rotate(90 138 81)" fill="#000"/><circle cx="114" cy="81" r="6" transform="rotate(90 114 81)" fill="#000"/></svg>

<svg id="vector" xmlns="http://www.w3.org/2000/svg" width="192" height="192" viewBox="0 0 192 192"><path fill="#00000000" d="M29.56,78.961L22.42,135.193C20.979,146.54 34.722,153.278 42.81,145.19L70,118H122L149.19,145.19C157.278,153.278 171.021,146.54 169.58,135.193L162.44,78.961C159.902,58.978 142.901,44 122.758,44H69.242C49.099,44 32.098,58.978 29.56,78.961Z" stroke-linejoin="round" stroke-width="12" stroke="#000000" id="path_0"/><path fill="#00000000" d="M66,69V81M66,93V81M66,81H54M66,81H78" stroke-width="12" stroke="#000000" stroke-linecap="round" id="path_1"/><path fill="#000000" d="M126,69m-6,0a6,6 0,1 1,12 0a6,6 0,1 1,-12 0" id="path_2"/><path fill="#000000" d="M126,93m-6,0a6,6 0,1 1,12 0a6,6 0,1 1,-12 0" id="path_3"/><path fill="#000000" d="M138,81m-0,-6a6,6 0,1 1,-0 12a6,6 0,1 1,-0 -12" id="path_4"/><path fill="#000000" d="M114,81m-0,-6a6,6 0,1 1,-0 12a6,6 0,1 1,-0 -12" id="path_5"/></svg>
